X:162
T: ES MURMELN DIE WELLEN
N: B0194
O: Europa, Mitteleuropa, Deutschland
R: Natur - Lied, Wasser
M: 6/8
L: 1/8
K: F
c | c4Ad | c4A
f | e4de | f4e
d | c4Ad | c4A
f | e4de | f3z2
F | f4ed | c4B
A | G4AB | A3z2
F | f4ed | c4B
A | GdcBAG | F3z2

